X: 20
T:Indian Ate A Woodchuck
R:Reel
M:4/4
L:1/8
N:From Greg Canote
K:C
|:ecega2g2|ed2d[g4d4]|ecega2ag|eged[e4c4]|egega2g2|ed2d[g4d4]|
a4abag|[1edcB[c4E4]:|[2edcB[c2E2]cA|]|:GFED
CDEG|A2dcd2cA|GFED CDEG|
A2B2c2eA|GFED CDEG|A2dcd2cA|GFED
CDEG|[1AcBdc2cA:|[2AcBd[c4E4]|]

